img/favicon/icon.svg

<svg width="32" height="32" viewBox="0 0 32 32" fill="none" xmlns="http://www.w3.org/2000/svg">
    <rect width="32" height="32" fill="#EE3643" />
    <path fill-rule="evenodd" clip-rule="evenodd" d="M6 5.99566C5 6.00005 5 7.00005 5 7.00005V12.0001C5 12.9627 6 12.9967 6 12.9967H8.81542C9.4353 12.9967 9.3283 13.4341 9.3283 13.4341C9.3283 13.4341 8.53735 17.6996 8.45213 18.4213C8.3666 19.1436 7.85371 19.6029 7.85371 19.6029C7.85371 19.6029 6.55549 19.9967 6.27774 20.1498C5.99999 20.3029 5.99999 21.0001 5.99999 21.0001H17V20.6308C17 20.1498 14.4364 19.6029 13.6031 19.5154C12.7696 19.4282 12.9406 18.859 12.9406 18.859L13.2824 16.0001H14.2441L14.5977 14.0001H13.636L13.7421 13.0001H16.5C18.3597 12.8031 20 11.8229 20 11.8229L20 7.50005C18.5254 6.42825 15.8801 5.99566 15.8801 5.99566H6ZM24.6213 8.70002H28.6584C28.8426 8.70002 28.9922 8.99242 28.9922 9.44225C28.9922 9.89208 28.8426 10.3 28.6584 10.3H24.6213C24.4223 11.0498 23.9575 12 23.4161 12H21V7.00002H23.4161C23.9578 7.00002 24.4223 7.95019 24.6213 8.70002ZM6.59842 25.9999C6 25.9999 6 25.3275 6 25.3275V21.9999H17V25.3494C17 25.9396 16.359 25.9999 16.359 25.9999L6.59842 25.9999ZM16 7.50769V7.49243C16 7.22163 15.8592 7.00006 15.6872 7.00006H6.3128C6.14076 7.00006 6 7.22163 6 7.49243V7.50769C6 7.77849 6.14076 8.00006 6.3128 8.00006H15.6872C15.8592 8.00006 16 7.77849 16 7.50769Z" fill="white" />
</svg>

<svg width="32" height="32" fill="none" xmlns="http://www.w3.org/2000/svg"><path fill="#EE3643" d="M0 0h32v32H0z"/><path fill-rule="evenodd" clip-rule="evenodd" d="M6 6C5 6 5 7 5 7v5c0 .96 1 1 1 1h2.82c.62 0 .5.43.5.43s-.78 4.27-.87 5c-.08.71-.6 1.17-.6 1.17s-1.3.4-1.57.55C6 20.3 6 21 6 21h11v-.37c0-.48-2.56-1.03-3.4-1.11-.83-.1-.66-.66-.66-.66l.34-2.86h.96l.36-2h-.96l.1-1h2.76c1.86-.2 3.5-1.18 3.5-1.18V7.5C18.53 6.43 15.88 6 15.88 6H6zm18.62 2.7h4.04c.18 0 .33.3.33.74 0 .45-.15.86-.33.86h-4.04c-.2.75-.66 1.7-1.2 1.7H21V7h2.42c.54 0 1 .95 1.2 1.7zM6.6 26c-.6 0-.6-.67-.6-.67V22h11v3.35c0 .59-.64.65-.64.65H6.6zM16 7.5c0-.28-.14-.5-.31-.5H6.3c-.17 0-.31.22-.31.5s.14.5.31.5h9.38c.17 0 .31-.22.31-.5z" fill="#fff"/></svg>
